exports/share-of-service-in-total-exports_v4_850x600.svg

<svg xmlns="http://www.w3.org/2000/svg" version="1.1" style="background-color:#fff;-webkit-font-smoothing:antialiased" width="850" height="600" font-family="'Helvetica Neue',Helvetica,Arial,sans-serif" font-size="18" text-rendering="optimizeLegibility"><g class="ChartTab"><g class="HeaderView"><g opacity=".8" transform="matrix(.27 0 0 .27 778 15)"><a xmlns:xlink="http://www.w3.org/1999/xlink" xlink:href="https://ourworldindata.org" target="_blank"><g><path fill="#1B2543" d="M0 0h211.2v130.1H0z"/><path fill="#E63912" d="M0 112.2h211.2v17.9H0z"/><g><path fill="none" d="M1.2 12.3h210.2v99.2H1.2z"/><path fill="#FFF" d="M37.8 32.2c0 12.7-7.7 19.4-17.1 19.4-9.7 0-16.6-7.5-16.6-18.7 0-11.7 7.3-19.3 17.1-19.3 10.1.1 16.6 7.7 16.6 18.6zm-28.6.6c0 7.9 4.3 14.9 11.8 14.9 7.5 0 11.8-6.9 11.8-15.3 0-7.3-3.8-14.9-11.8-14.9-7.9 0-11.8 7.3-11.8 15.3zM62.7 43.8c0 2.7.1 5.1.2 7.2h-4.3l-.3-4.3h-.1c-1.3 2.1-4 4.9-8.8 4.9-4.2 0-9.1-2.3-9.1-11.6V24.6h4.8v14.6c0 5 1.5 8.4 5.9 8.4 3.2 0 5.5-2.2 6.3-4.4.3-.7.4-1.6.4-2.5V24.6h4.8v19.2zM67.3 32.8c0-3.1-.1-5.8-.2-8.2h4.2l.2 5.2h.2c1.2-3.5 4.1-5.8 7.3-5.8.5 0 .9.1 1.4.2v4.5c-.5-.1-1-.2-1.6-.2-3.4 0-5.8 2.6-6.5 6.2-.1.7-.2 1.4-.2 2.2V51h-4.8V32.8zM95.4 51L86 14.2h5l4.4 18.6c1.1 4.6 2.1 9.2 2.7 12.7h.1c.6-3.7 1.8-8 3-12.8l4.9-18.5h5l4.5 18.7c1 4.4 2 8.7 2.6 12.6h.1c.8-4 1.8-8.1 3-12.7l4.9-18.5h4.9L120.6 51h-5L111 31.9c-1.1-4.7-1.9-8.3-2.4-12h-.1c-.7 3.7-1.5 7.3-2.8 12L100.4 51h-5zM154.9 37.6c0 9.8-6.8 14-13.2 14-7.2 0-12.7-5.2-12.7-13.6 0-8.8 5.8-14 13.1-14 7.7 0 12.8 5.5 12.8 13.6zm-21 .3c0 5.8 3.3 10.1 8 10.1 4.6 0 8-4.3 8-10.3 0-4.5-2.2-10.1-7.9-10.1s-8.1 5.2-8.1 10.3zM158.2 32.8c0-3.1-.1-5.8-.2-8.2h4.2l.2 5.2h.2c1.2-3.5 4.1-5.8 7.3-5.8.5 0 .9.1 1.4.2v4.5c-.5-.1-1-.2-1.6-.2-3.4 0-5.8 2.6-6.5 6.2-.1.7-.2 1.4-.2 2.2V51h-4.8V32.8zM173.5 12.3h4.8V51h-4.8V12.3zM206.5 12.3v31.9c0 2.3.1 5 .2 6.8h-4.3l-.2-4.6h-.2c-1.5 2.9-4.7 5.2-9 5.2-6.4 0-11.3-5.4-11.3-13.4-.1-8.8 5.4-14.2 11.9-14.2 4 0 6.8 1.9 8 4h.1V12.3h4.8zm-4.8 23.1c0-.6-.1-1.4-.2-2a7 7 0 00-6.9-5.6c-5 0-7.9 4.4-7.9 10.2 0 5.3 2.6 9.8 7.8 9.8 3.2 0 6.2-2.1 7.1-5.7.2-.7.2-1.3.2-2.1v-4.6zM42.8 64c.1 1.6-1.1 2.9-3.1 2.9-1.7 0-2.9-1.3-2.9-2.9 0-1.7 1.3-3 3-3 1.9 0 3 1.3 3 3zm-5.4 33.8V71.4h4.8v26.4h-4.8zM47.5 78.6c0-2.7-.1-5-.2-7.1h4.3l.3 4.4h.1c1.3-2.5 4.4-5 8.8-5 3.7 0 9.4 2.2 9.4 11.2v15.8h-4.8V82.6c0-4.3-1.6-7.8-6.1-7.8-3.2 0-5.6 2.2-6.5 4.9-.2.6-.3 1.4-.3 2.2v15.9h-4.8V78.6zM84 61.6c2.9-.4 6.3-.8 10.1-.8 6.8 0 11.7 1.6 14.9 4.6 3.3 3 5.2 7.3 5.2 13.2 0 6-1.9 10.9-5.3 14.3-3.4 3.4-9.1 5.3-16.3 5.3-3.4 0-6.2-.2-8.6-.4V61.6zm4.8 32.5c1.2.2 3 .3 4.8.3 10.2 0 15.7-5.7 15.7-15.6.1-8.7-4.9-14.2-14.9-14.2-2.5 0-4.3.2-5.6.5v29zM132.1 97.8l-.4-3.3h-.2a9.79 9.79 0 01-8.1 3.9c-5.4 0-8.1-3.8-8.1-7.6 0-6.4 5.7-9.9 15.9-9.8v-.5c0-2.2-.6-6.1-6-6.1-2.5 0-5 .8-6.9 2l-1.1-3.2c2.2-1.4 5.4-2.3 8.7-2.3 8.1 0 10.1 5.5 10.1 10.8v9.9c0 2.3.1 4.5.4 6.3h-4.3zm-.7-13.4c-5.3-.1-11.2.8-11.2 5.9 0 3.1 2.1 4.6 4.5 4.6 3.4 0 5.6-2.2 6.4-4.4.2-.5.3-1 .3-1.5v-4.6zM146.6 63.9v7.6h6.9v3.7h-6.9v14.2c0 3.3.9 5.1 3.6 5.1 1.3 0 2.2-.2 2.8-.3l.2 3.6c-.9.4-2.4.7-4.3.7-2.2 0-4-.7-5.2-2-1.4-1.4-1.9-3.8-1.9-6.9V75.1h-4.1v-3.7h4.1v-6.3l4.8-1.2zM171.4 97.8l-.4-3.3h-.2a9.79 9.79 0 01-8.1 3.9c-5.4 0-8.1-3.8-8.1-7.6 0-6.4 5.7-9.9 15.9-9.8v-.5c0-2.2-.6-6.1-6-6.1-2.5 0-5 .8-6.9 2l-1.1-3.2c2.2-1.4 5.4-2.3 8.7-2.3 8.1 0 10.1 5.5 10.1 10.8v9.9c0 2.3.1 4.5.4 6.3h-4.3zm-.7-13.4c-5.3-.1-11.2.8-11.2 5.9 0 3.1 2.1 4.6 4.5 4.6 3.4 0 5.6-2.2 6.4-4.4.2-.5.3-1 .3-1.5v-4.6z"/></g></g></a></g><a href="https://ourworldindata.org/grapher/share-of-service-in-total-exports" target="_blank"><text font-size="25.2" x="15" y="35.2" fill="#555"><tspan x="15" y="35.16">Share of service in total exports, World</tspan></text></a><text font-size="14.4" x="15" y="53.7" fill="#666"><tspan x="15" y="53.72">Services refer to economic output of intangible commodities that may be produced, transferred, and consumed at the</tspan><tspan x="15" y="69.56">same time. The share of services in total exports comes from comparing trade in goods and services at current US</tspan><tspan x="15" y="85.4">dollars.</tspan></text></g><g class="StackedArea"><defs><clipPath id="a"><path d="M61.63 0h820v897.8h-820z"/></clipPath></defs><g class="AxisBoxView"><g class="HorizontalAxis" fill="#666" text-anchor="middle" font-size="16.2"><text x="61.6" y="556.5">1979</text><text x="173" y="556.5">1985</text><text x="265.7" y="556.5">1990</text><text x="358.5" y="556.5">1995</text><text x="451.3" y="556.5">2000</text><text x="544.1" y="556.5">2005</text><text x="636.8" y="556.5">2010</text><text x="748.2" y="556.5">2016</text></g><g class="VerticalAxis" fill="#666" dominant-baseline="middle" text-anchor="end" font-size="16.2"><text x="56.63" y="535.3">0%</text><text x="56.63" y="449.8">20%</text><text x="56.63" y="364.2">40%</text><text x="56.63" y="278.7">60%</text><text x="56.63" y="193.1">80%</text><text x="56.63" y="107.6">100%</text></g><g class="AxisGridLines"><path stroke="#ccc" d="M61.63 535.3h686.53"/><path stroke="#ddd" stroke-dasharray="3,2" d="M61.63 449.8h686.53M61.63 364.2h686.53M61.63 278.7h686.53M61.63 193.1h686.53M61.63 107.6h686.53"/></g></g><g clip-path="url(#a)"><g class="HeightedLegend clickable"><g class="legendMark"><text font-size="13.5" x="753.2" y="274.8" fill="#c8c8c8"><tspan x="753.16" y="274.75">Goods</tspan></text></g><g class="legendMark"><text font-size="13.5" x="753.2" y="488.6" fill="#b077b1"><tspan x="753.16" y="488.55">Services</tspan></text></g></g><g class="Areas"><path d="M61.6 461.7l18.6 1 18.5-2.4 18.6-4.9 18.6-.8 18.5 1.8 18.6-2.7 18.5-5.8 18.6.9 18.5 2.4 18.6-.1 18.5-3.1 18.6-2.1 18.5-3.5 18.6-1.7 18.6 3.2 18.5 4.2 18.6-.7 18.5-3.7 18.6-2.5 18.5-.7 18.6 4 18.5-3.3 18.6-2.3 18.5 5.5h18.6l18.6 2.3 18.5 1.6 18.6-2.2 18.5 1.7 18.6-10.2 18.5 8.9 18.6 3.6 18.5-.7 18.6-2.9 18.6-3.9 18.5-6.2 18.6-2.7-.04 101.6H61.63" fill="#b077b1" fill-opacity=".7" class="World_1-area"/><path d="M61.6 107.6H748.2v326.1l-18.6 2.7-18.5 6.2-18.6 3.9-18.6 2.9-18.5.7-18.6-3.6-18.5-8.9-18.6 10.2-18.5-1.7-18.6 2.2-18.5-1.6-18.6-2.3h-18.6l-18.5-5.5-18.6 2.3-18.5 3.3-18.6-4-18.5.7-18.6 2.5-18.5 3.7-18.6.7-18.5-4.2-18.6-3.2-18.6 1.7-18.5 3.5-18.6 2.1-18.5 3.1-18.6.1-18.5-2.4-18.6-.9-18.5 5.8-18.6 2.7-18.5-1.8-18.6.8-18.6 4.9-18.5 2.4-18.6-1" fill="#c8c8c8" fill-opacity=".7" class="World_0-area"/><path stroke-linecap="round" d="M61.6 461.7l18.6 1 18.5-2.4 18.6-4.9 18.6-.8 18.5 1.8 18.6-2.7 18.5-5.8 18.6.9 18.5 2.4 18.6-.1 18.5-3.1 18.6-2.1 18.5-3.5 18.6-1.7 18.6 3.2 18.5 4.2 18.6-.7 18.5-3.7 18.6-2.5 18.5-.7 18.6 4 18.5-3.3 18.6-2.3 18.5 5.5h18.6l18.6 2.3 18.5 1.6 18.6-2.2 18.5 1.7 18.6-10.2 18.5 8.9 18.6 3.6 18.5-.7 18.6-2.9 18.6-3.9 18.5-6.2 18.6-2.7" stroke="#936494" stroke-opacity=".7" stroke-width=".5" fill="none" class="World_1-border"/><path stroke-linecap="round" d="M61.6 107.6H748.2" stroke="#A7A7A7" stroke-opacity=".7" stroke-width=".5" fill="none" class="World_0-border"/></g></g></g><g class="SourcesFooter" fill="#777"><g class="clickable" fill="#777"><text font-size="12.6" x="15" y="581.6"><tspan x="15" y="581.58">Source: World Bank – WDI</tspan></text></g><text font-size="12.6" x="775.4" y="581.6"><tspan x="775.4" y="581.58"><a class="cclogo" href="http://creativecommons.org/licenses/by-sa/4.0/deed.en_US" target="_blank" fill="#777">CC BY-SA</a></tspan></text></g></g></svg>

<svg xmlns="http://www.w3.org/2000/svg" version="1.1" style="font-family: 'Helvetica Neue', Helvetica, Arial, sans-serif; font-size: 18px; background-color: white; text-rendering: optimizeLegibility; -webkit-font-smoothing: antialiased;" width="850" height="600"><g class="ChartTab"><g class="HeaderView"><g opacity="0.8" transform="translate(778, 15) scale(0.27)"><a xmlns:xlink="http://www.w3.org/1999/xlink" xlink:href="https://ourworldindata.org" target="_blank"><g><rect x="0" y="0" fill="#1B2543" width="211.2" height="130.1"/><rect x="0" y="112.2" fill="#E63912" width="211.2" height="17.9"/><g><rect x="1.2" y="12.3" fill="none" width="210.2" height="99.2"/><path fill="#FFFFFF" d="M37.8,32.2c0,12.7-7.7,19.4-17.1,19.4c-9.7,0-16.6-7.5-16.6-18.7c0-11.7,7.3-19.3,17.1-19.3 C31.3,13.7,37.8,21.3,37.8,32.2z M9.2,32.8c0,7.9,4.3,14.9,11.8,14.9c7.5,0,11.8-6.9,11.8-15.3c0-7.3-3.8-14.9-11.8-14.9 C13.1,17.5,9.2,24.8,9.2,32.8z"/><path fill="#FFFFFF" d="M62.7,43.8c0,2.7,0.1,5.1,0.2,7.2h-4.3l-0.3-4.3h-0.1c-1.3,2.1-4,4.9-8.8,4.9c-4.2,0-9.1-2.3-9.1-11.6 V24.6h4.8v14.6c0,5,1.5,8.4,5.9,8.4c3.2,0,5.5-2.2,6.3-4.4c0.3-0.7,0.4-1.6,0.4-2.5V24.6h4.8V43.8z"/><path fill="#FFFFFF" d="M67.3,32.8c0-3.1-0.1-5.8-0.2-8.2h4.2l0.2,5.2h0.2c1.2-3.5,4.1-5.8,7.3-5.8c0.5,0,0.9,0.1,1.4,0.2v4.5 c-0.5-0.1-1-0.2-1.6-0.2c-3.4,0-5.8,2.6-6.5,6.2c-0.1,0.7-0.2,1.4-0.2,2.2V51h-4.8V32.8z"/><path fill="#FFFFFF" d="M95.4,51l-9.4-36.8h5l4.4,18.6c1.1,4.6,2.1,9.2,2.7,12.7h0.1c0.6-3.7,1.8-8,3-12.8l4.9-18.5h5l4.5,18.7 c1,4.4,2,8.7,2.6,12.6h0.1c0.8-4,1.8-8.1,3-12.7l4.9-18.5h4.9L120.6,51h-5L111,31.9c-1.1-4.7-1.9-8.3-2.4-12h-0.1 c-0.7,3.7-1.5,7.3-2.8,12L100.4,51H95.4z"/><path fill="#FFFFFF" d="M154.9,37.6c0,9.8-6.8,14-13.2,14c-7.2,0-12.7-5.2-12.7-13.6c0-8.8,5.8-14,13.1-14 C149.8,24,154.9,29.5,154.9,37.6z M133.9,37.9c0,5.8,3.3,10.1,8,10.1c4.6,0,8-4.3,8-10.3c0-4.5-2.2-10.1-7.9-10.1 C136.3,27.6,133.9,32.8,133.9,37.9z"/><path fill="#FFFFFF" d="M158.2,32.8c0-3.1-0.1-5.8-0.2-8.2h4.2l0.2,5.2h0.2c1.2-3.5,4.1-5.8,7.3-5.8c0.5,0,0.9,0.1,1.4,0.2v4.5 c-0.5-0.1-1-0.2-1.6-0.2c-3.4,0-5.8,2.6-6.5,6.2c-0.1,0.7-0.2,1.4-0.2,2.2V51h-4.8V32.8z"/><path fill="#FFFFFF" d="M173.5,12.3h4.8V51h-4.8V12.3z"/><path fill="#FFFFFF" d="M206.5,12.3v31.9c0,2.3,0.1,5,0.2,6.8h-4.3l-0.2-4.6H202c-1.5,2.9-4.7,5.2-9,5.2 c-6.4,0-11.3-5.4-11.3-13.4c-0.1-8.8,5.4-14.2,11.9-14.2c4,0,6.8,1.9,8,4h0.1V12.3H206.5z M201.7,35.4c0-0.6-0.1-1.4-0.2-2 c-0.7-3.1-3.3-5.6-6.9-5.6c-5,0-7.9,4.4-7.9,10.2c0,5.3,2.6,9.8,7.8,9.8c3.2,0,6.2-2.1,7.1-5.7c0.2-0.7,0.2-1.3,0.2-2.1V35.4z"/><path fill="#FFFFFF" d="M42.8,64c0.1,1.6-1.1,2.9-3.1,2.9c-1.7,0-2.9-1.3-2.9-2.9c0-1.7,1.3-3,3-3C41.7,61,42.8,62.3,42.8,64z M37.4,97.8V71.4h4.8v26.4H37.4z"/><path fill="#FFFFFF" d="M47.5,78.6c0-2.7-0.1-5-0.2-7.1h4.3l0.3,4.4h0.1c1.3-2.5,4.4-5,8.8-5c3.7,0,9.4,2.2,9.4,11.2v15.8h-4.8 V82.6c0-4.3-1.6-7.8-6.1-7.8c-3.2,0-5.6,2.2-6.5,4.9c-0.2,0.6-0.3,1.4-0.3,2.2v15.9h-4.8V78.6z"/><path fill="#FFFFFF" d="M84,61.6c2.9-0.4,6.3-0.8,10.1-0.8c6.8,0,11.7,1.6,14.9,4.6c3.3,3,5.2,7.3,5.2,13.2c0,6-1.9,10.9-5.3,14.3 c-3.4,3.4-9.1,5.3-16.3,5.3c-3.4,0-6.2-0.2-8.6-0.4V61.6z M88.8,94.1c1.2,0.2,3,0.3,4.8,0.3c10.2,0,15.7-5.7,15.7-15.6 c0.1-8.7-4.9-14.2-14.9-14.2c-2.5,0-4.3,0.2-5.6,0.5V94.1z"/><path fill="#FFFFFF" d="M132.1,97.8l-0.4-3.3h-0.2c-1.5,2.1-4.3,3.9-8.1,3.9c-5.4,0-8.1-3.8-8.1-7.6c0-6.4,5.7-9.9,15.9-9.8v-0.5 c0-2.2-0.6-6.1-6-6.1c-2.5,0-5,0.8-6.9,2l-1.1-3.2c2.2-1.4,5.4-2.3,8.7-2.3c8.1,0,10.1,5.5,10.1,10.8v9.9c0,2.3,0.1,4.5,0.4,6.3 H132.1z M131.4,84.4c-5.3-0.1-11.2,0.8-11.2,5.9c0,3.1,2.1,4.6,4.5,4.6c3.4,0,5.6-2.2,6.4-4.4c0.2-0.5,0.3-1,0.3-1.5V84.4z"/><path fill="#FFFFFF" d="M146.6,63.9v7.6h6.9v3.7h-6.9v14.2c0,3.3,0.9,5.1,3.6,5.1c1.3,0,2.2-0.2,2.8-0.3l0.2,3.6 c-0.9,0.4-2.4,0.7-4.3,0.7c-2.2,0-4-0.7-5.2-2c-1.4-1.4-1.9-3.8-1.9-6.9V75.1h-4.1v-3.7h4.1v-6.3L146.6,63.9z"/><path fill="#FFFFFF" d="M171.4,97.8l-0.4-3.3h-0.2c-1.5,2.1-4.3,3.9-8.1,3.9c-5.4,0-8.1-3.8-8.1-7.6c0-6.4,5.7-9.9,15.9-9.8v-0.5 c0-2.2-0.6-6.1-6-6.1c-2.5,0-5,0.8-6.9,2l-1.1-3.2c2.2-1.4,5.4-2.3,8.7-2.3c8.1,0,10.1,5.5,10.1,10.8v9.9c0,2.3,0.1,4.5,0.4,6.3 H171.4z M170.7,84.4c-5.3-0.1-11.2,0.8-11.2,5.9c0,3.1,2.1,4.6,4.5,4.6c3.4,0,5.6-2.2,6.4-4.4c0.2-0.5,0.3-1,0.3-1.5V84.4z"/></g></g></a></g><a href="https://ourworldindata.org/grapher/share-of-service-in-total-exports" target="_blank"><text font-size="25.20" x="15.0" y="35.2" fill="#555"><tspan x="15" y="35.160000000000004">Share of service in total exports, World</tspan></text></a><text font-size="14.40" x="15.0" y="53.7" fill="#666"><tspan x="15" y="53.72">Services refer to economic output of intangible commodities that may be produced, transferred, and consumed at the</tspan><tspan x="15" y="69.56">same time. The share of services in total exports comes from comparing trade in goods and services at current US</tspan><tspan x="15" y="85.4">dollars.</tspan></text></g><g class="StackedArea"><defs><clipPath id="boundsClip-1"><rect x="61.634" y="0" width="820" height="897.8"></rect></clipPath></defs><g class="AxisBoxView"><g class="HorizontalAxis"><text x="61.6" y="556.5" fill="#666" text-anchor="middle" font-size="16.2">1979</text><text x="173" y="556.5" fill="#666" text-anchor="middle" font-size="16.2">1985</text><text x="265.7" y="556.5" fill="#666" text-anchor="middle" font-size="16.2">1990</text><text x="358.5" y="556.5" fill="#666" text-anchor="middle" font-size="16.2">1995</text><text x="451.3" y="556.5" fill="#666" text-anchor="middle" font-size="16.2">2000</text><text x="544.1" y="556.5" fill="#666" text-anchor="middle" font-size="16.2">2005</text><text x="636.8" y="556.5" fill="#666" text-anchor="middle" font-size="16.2">2010</text><text x="748.2" y="556.5" fill="#666" text-anchor="middle" font-size="16.2">2016</text></g><g class="VerticalAxis"><text x="56.63" y="535.3" fill="#666" dominant-baseline="middle" text-anchor="end" font-size="16.2">0%</text><text x="56.63" y="449.8" fill="#666" dominant-baseline="middle" text-anchor="end" font-size="16.2">20%</text><text x="56.63" y="364.2" fill="#666" dominant-baseline="middle" text-anchor="end" font-size="16.2">40%</text><text x="56.63" y="278.7" fill="#666" dominant-baseline="middle" text-anchor="end" font-size="16.2">60%</text><text x="56.63" y="193.1" fill="#666" dominant-baseline="middle" text-anchor="end" font-size="16.2">80%</text><text x="56.63" y="107.6" fill="#666" dominant-baseline="middle" text-anchor="end" font-size="16.2">100%</text></g><g class="AxisGridLines"><line x1="61.63" y1="535.3" x2="748.16" y2="535.3" stroke="#ccc"></line><line x1="61.63" y1="449.8" x2="748.16" y2="449.8" stroke="#ddd" stroke-dasharray="3,2"></line><line x1="61.63" y1="364.2" x2="748.16" y2="364.2" stroke="#ddd" stroke-dasharray="3,2"></line><line x1="61.63" y1="278.7" x2="748.16" y2="278.7" stroke="#ddd" stroke-dasharray="3,2"></line><line x1="61.63" y1="193.1" x2="748.16" y2="193.1" stroke="#ddd" stroke-dasharray="3,2"></line><line x1="61.63" y1="107.6" x2="748.16" y2="107.6" stroke="#ddd" stroke-dasharray="3,2"></line></g></g><g clip-path="url(#boundsClip-1)"><g class="HeightedLegend clickable"><g class="legendMark"><rect x="748.16" y="263.95" width="74.96000000000001" height="13.5" fill="#fff" opacity="0"></rect><text font-size="13.50" x="753.2" y="274.8" fill="#c8c8c8"><tspan x="753.16" y="274.75">Goods</tspan></text></g><g class="legendMark"><rect x="748.16" y="477.75" width="86.84" height="13.5" fill="#fff" opacity="0"></rect><text font-size="13.50" x="753.2" y="488.6" fill="#b077b1"><tspan x="753.16" y="488.55">Services</tspan></text></g></g><g class="Areas"><rect x="61.634" y="107.60000000000001" width="686.526" height="427.69999999999993" opacity="0" fill="rgba(255,255,255,0)"></rect><path stroke-linecap="round" d="M61.6 461.7L80.2 462.7L98.7 460.3L117.3 455.4L135.9 454.6L154.4 456.4L173 453.7L191.5 447.9L210.1 448.8L228.6 451.2L247.2 451.1L265.7 448L284.3 445.9L302.8 442.4L321.4 440.7L340 443.9L358.5 448.1L377.1 447.4L395.6 443.7L414.2 441.2L432.7 440.5L451.3 444.5L469.8 441.2L488.4 438.9L506.9 444.4L525.5 444.4L544.1 446.7L562.6 448.3L581.2 446.1L599.7 447.8L618.3 437.6L636.8 446.5L655.4 450.1L673.9 449.4L692.5 446.5L711.1 442.6L729.6 436.4L748.2 433.7L748.16 535.3L61.634 535.3" fill="#b077b1" fill-opacity="0.7" class="World_1-area"></path><path stroke-linecap="round" d="M61.6 107.6L80.2 107.6L98.7 107.6L117.3 107.6L135.9 107.6L154.4 107.6L173 107.6L191.5 107.6L210.1 107.6L228.6 107.6L247.2 107.6L265.7 107.6L284.3 107.6L302.8 107.6L321.4 107.6L340 107.6L358.5 107.6L377.1 107.6L395.6 107.6L414.2 107.6L432.7 107.6L451.3 107.6L469.8 107.6L488.4 107.6L506.9 107.6L525.5 107.6L544.1 107.6L562.6 107.6L581.2 107.6L599.7 107.6L618.3 107.6L636.8 107.6L655.4 107.6L673.9 107.6L692.5 107.6L711.1 107.6L729.6 107.6L748.2 107.6L748.2 433.7L729.6 436.4L711.1 442.6L692.5 446.5L673.9 449.4L655.4 450.1L636.8 446.5L618.3 437.6L599.7 447.8L581.2 446.1L562.6 448.3L544.1 446.7L525.5 444.4L506.9 444.4L488.4 438.9L469.8 441.2L451.3 444.5L432.7 440.5L414.2 441.2L395.6 443.7L377.1 447.4L358.5 448.1L340 443.9L321.4 440.7L302.8 442.4L284.3 445.9L265.7 448L247.2 451.1L228.6 451.2L210.1 448.8L191.5 447.9L173 453.7L154.4 456.4L135.9 454.6L117.3 455.4L98.7 460.3L80.2 462.7L61.6 461.7" fill="#c8c8c8" fill-opacity="0.7" class="World_0-area"></path><path stroke-linecap="round" d="M61.6 461.7L80.2 462.7L98.7 460.3L117.3 455.4L135.9 454.6L154.4 456.4L173 453.7L191.5 447.9L210.1 448.8L228.6 451.2L247.2 451.1L265.7 448L284.3 445.9L302.8 442.4L321.4 440.7L340 443.9L358.5 448.1L377.1 447.4L395.6 443.7L414.2 441.2L432.7 440.5L451.3 444.5L469.8 441.2L488.4 438.9L506.9 444.4L525.5 444.4L544.1 446.7L562.6 448.3L581.2 446.1L599.7 447.8L618.3 437.6L636.8 446.5L655.4 450.1L673.9 449.4L692.5 446.5L711.1 442.6L729.6 436.4L748.2 433.7" stroke="rgb(147, 100, 148)" stroke-opacity="0.7" stroke-width="0.5" fill="none" class="World_1-border"></path><path stroke-linecap="round" d="M61.6 107.6L80.2 107.6L98.7 107.6L117.3 107.6L135.9 107.6L154.4 107.6L173 107.6L191.5 107.6L210.1 107.6L228.6 107.6L247.2 107.6L265.7 107.6L284.3 107.6L302.8 107.6L321.4 107.6L340 107.6L358.5 107.6L377.1 107.6L395.6 107.6L414.2 107.6L432.7 107.6L451.3 107.6L469.8 107.6L488.4 107.6L506.9 107.6L525.5 107.6L544.1 107.6L562.6 107.6L581.2 107.6L599.7 107.6L618.3 107.6L636.8 107.6L655.4 107.6L673.9 107.6L692.5 107.6L711.1 107.6L729.6 107.6L748.2 107.6" stroke="rgb(167, 167, 167)" stroke-opacity="0.7" stroke-width="0.5" fill="none" class="World_0-border"></path></g></g></g><g style="fill: #777;" class="SourcesFooter"><g style="fill: #777;" class="clickable"><text font-size="12.60" x="15.0" y="581.6"><tspan x="15" y="581.58">Source: World Bank – WDI</tspan></text></g><text font-size="12.60" x="775.4" y="581.6"><tspan x="775.402" y="581.58"><a style="fill: #777;" class="cclogo" href="http://creativecommons.org/licenses/by-sa/4.0/deed.en_US" target="_blank">CC BY-SA</a></tspan></text></g></g></svg>
